src/icons/solid/status/close-circle.svg

<svg width="24" height="24" viewBox="0 0 24 24" fill="none" xmlns="http://www.w3.org/2000/svg">
<g clip-path="url(#clip0_4787_763)">
<path d="M12.0045 2C9.24875 2 6.74761 3.1278 4.9377 4.93771C3.12778 6.74762 2 9.24875 2 12.0045C2 14.7603 3.03684 17.1887 4.9286 19.0714C6.81128 20.9632 9.33061 22.0091 11.9955 22.0091C14.6603 22.0091 17.1705 20.9632 19.0623 19.0805C20.9541 17.1887 22 14.6785 22 12.0045C22 6.48386 17.507 2 11.9955 2H12.0045ZM16.3338 15.1605C16.6612 15.4879 16.6612 16.0064 16.3338 16.3338C16.1792 16.4975 15.9609 16.5794 15.7517 16.5794C15.5425 16.5794 15.3151 16.4975 15.1605 16.3338L12.0045 13.1778L8.83947 16.3338C8.68486 16.4975 8.46658 16.5794 8.25739 16.5794C8.0482 16.5794 7.82083 16.4975 7.66621 16.3338C7.33879 16.0064 7.33879 15.4789 7.66621 15.1605L10.8313 12.0045L7.66621 8.83948C7.33879 8.51205 7.33879 7.98455 7.66621 7.66622C7.99363 7.3388 8.51205 7.3388 8.83947 7.66622L12.0045 10.8313L15.1605 7.66622C15.4879 7.3388 16.0064 7.3388 16.3338 7.66622C16.6612 7.99364 16.6612 8.51205 16.3338 8.83948L13.1778 12.0045L16.3338 15.1605Z" fill="#3C3B44"/>
</g>
<defs>
<clipPath id="clip0_4787_763">
<rect width="24" height="24" fill="white"/>
</clipPath>
</defs>
</svg>

<svg xmlns="http://www.w3.org/2000/svg" width="24" height="24" fill="none" viewBox="0 0 24 24"><g clip-path="url(#a)"><path fill="currentColor" d="M12.005 2a9.98 9.98 0 0 0-7.067 2.938A9.98 9.98 0 0 0 2 12.005c0 2.755 1.037 5.184 2.929 7.066a9.92 9.92 0 0 0 7.067 2.938 9.97 9.97 0 0 0 7.066-2.928A9.94 9.94 0 0 0 22 12.005C22 6.484 17.507 2 11.996 2zm4.329 13.16a.824.824 0 0 1 0 1.174.826.826 0 0 1-1.173 0l-3.157-3.156-3.165 3.156a.826.826 0 0 1-1.173 0 .824.824 0 0 1 0-1.173l3.165-3.156-3.165-3.166a.823.823 0 0 1 0-1.173.823.823 0 0 1 1.173 0l3.165 3.165 3.157-3.165a.824.824 0 0 1 1.173 0 .824.824 0 0 1 0 1.173l-3.156 3.165z"/></g><defs><clipPath id="a"><path fill="currentColor" d="M0 0h24v24H0z"/></clipPath></defs></svg>
